build/category/DeveloperSolid.svg

<svg xmlns="http://www.w3.org/2000/svg" fill="none" viewBox="0 0 24 24" focusable="false"><path d="M0 0H24V24H0z"/><path fill="#74767B" fill-rule="evenodd" d="M7 4C5.34315 4 4 5.34315 4 7L4 17C4 18.6569 5.34315 20 7 20L17 20C18.6569 20 20 18.6569 20 17L20 7C20 5.34315 18.6569 4 17 4L7 4ZM13.2774 9.82731C13.3734 9.4814 13.1708 9.12316 12.8249 9.02716C12.479 8.93116 12.1207 9.13375 12.0247 9.47966L10.7223 14.1727C10.6263 14.5186 10.8289 14.8768 11.1748 14.9728C11.5207 15.0688 11.879 14.8662 11.975 14.5203L13.2774 9.82731ZM8.77939 9.12989C9.04765 9.36384 9.08991 9.78891 8.87377 10.0793L7.44412 12L8.87377 13.9207C9.08991 14.2111 9.04765 14.6362 8.77939 14.8701C8.51112 15.1041 8.11843 15.0583 7.90229 14.768L6.15733 12.4236C5.97327 12.1763 5.97327 11.8237 6.15733 11.5764L7.90229 9.23205C8.11843 8.94167 8.51112 8.89593 8.77939 9.12989ZM15.1286 10.0789C14.9126 9.78834 14.9552 9.36331 15.2236 9.12957C15.492 8.89583 15.8847 8.94188 16.1006 9.23243L17.843 11.5768C18.0247 11.8214 18.0268 12.1693 17.8479 12.4164L15.9362 15.0574C15.7238 15.351 15.3317 15.4025 15.0605 15.1725C14.7893 14.9425 14.7417 14.5181 14.9542 14.2245L16.5605 12.0055L15.1286 10.0789Z"/></svg>

<svg xmlns="http://www.w3.org/2000/svg" fill="none" viewBox="0 0 24 24" focusable="false"><path fill="#74767B" fill-rule="evenodd" d="M7 4C5.34 4 4 5.34 4 7v10c0 1.65 1.34 3 3 3h10c1.65 0 3-1.35 3-3V7c0-1.66-1.35-3-3-3zm6.27 5.82c.1-.34-.1-.7-.45-.8-.35-.09-.7.11-.8.45l-1.3 4.7c-.1.34.1.7.45.8.35.09.7-.11.8-.45zm-4.5-.7c.27.24.31.66.1.95L7.44 12l1.43 1.92c.21.29.17.71-.1.95-.26.23-.66.18-.87-.11l-1.75-2.34a.74.74 0 0 1 0-.85L7.9 9.23c.21-.29.61-.34.87-.11m6.35.95a.72.72 0 0 1 .1-.95c.27-.23.66-.18.88.11l1.74 2.34c.18.25.18.59 0 .84l-1.91 2.64c-.21.3-.6.35-.87.12-.28-.23-.32-.66-.11-.95L16.56 12z"/></svg>
